X:349
T:Black Bess. (p)1696.PLFD.349
M:6/4
L:1/4
Q:3/4=90
S:Playford, Dancing Master,9th Ed,1st Supp.,1696.
O:England
H:1696.
Z:Chris Partington
K:F
c|(AF)Ac2f|(BG)dg2a|(bd)g(ec)f|f2ef2:|
|:c'|(af)db2a|(gc)eg2a|(fd)g(ec)d|=BGBc2_B|
(AF)A(cf)A|(BG)B(dg)a|(bd)g(ec)a|f2ef2:|
